img/sprite/icon-tw.svg

<svg xmlns="http://www.w3.org/2000/svg" preserveAspectRatio="xMidYMid" width="28.219" height="28.25"><path d="M14.101 28.236c-7.795 0-14.114-6.319-14.114-14.114C-.013 6.327 6.306.008 14.101.008c7.794 0 14.113 6.319 14.113 14.114 0 7.795-6.319 14.114-14.113 14.114zm7.777-19.801c-.633.376-1.334.648-2.08.795-.598-.637-1.449-1.035-2.392-1.035-1.809 0-3.276 1.467-3.276 3.276 0 .257.029.507.085.747-2.722-.137-5.136-1.441-6.752-3.423-.282.484-.444 1.047-.444 1.647 0 1.136.579 2.139 1.458 2.727-.537-.017-1.043-.165-1.484-.41v.041c0 1.587 1.129 2.911 2.627 3.212-.274.075-.564.115-.863.115-.211 0-.416-.02-.616-.059.417 1.302 1.627 2.249 3.06 2.275-1.121.879-2.533 1.403-4.068 1.403-.265 0-.526-.016-.782-.046 1.45.93 3.172 1.472 5.022 1.472 6.026 0 9.321-4.992 9.321-9.321 0-.142-.003-.283-.01-.424.641-.462 1.196-1.039 1.635-1.695-.587.26-1.219.436-1.881.515.676-.405 1.195-1.047 1.44-1.812z" opacity=".56" fill-rule="evenodd"/></svg>

<svg xmlns="http://www.w3.org/2000/svg" xmlns:xlink="http://www.w3.org/1999/xlink" preserveAspectRatio="xMidYMid" width="28.219" height="28.25" viewBox="0 0 28.219 28.25">
  <defs>
    <style>
      .cls-1 {
        fill: #000;
        opacity: 0.56;
        fill-rule: evenodd;
      }
    </style>
  </defs>
  <path d="M14.101,28.236 C6.306,28.236 -0.013,21.917 -0.013,14.122 C-0.013,6.327 6.306,0.008 14.101,0.008 C21.895,0.008 28.214,6.327 28.214,14.122 C28.214,21.917 21.895,28.236 14.101,28.236 ZM21.878,8.435 C21.245,8.811 20.544,9.083 19.798,9.230 C19.200,8.593 18.349,8.195 17.406,8.195 C15.597,8.195 14.130,9.662 14.130,11.471 C14.130,11.728 14.159,11.978 14.215,12.218 C11.493,12.081 9.079,10.777 7.463,8.795 C7.181,9.279 7.019,9.842 7.019,10.442 C7.019,11.578 7.598,12.581 8.477,13.169 C7.940,13.152 7.434,13.004 6.993,12.759 C6.993,12.773 6.993,12.786 6.993,12.800 C6.993,14.387 8.122,15.711 9.620,16.012 C9.346,16.087 9.056,16.127 8.757,16.127 C8.546,16.127 8.341,16.107 8.141,16.068 C8.558,17.370 9.768,18.317 11.201,18.343 C10.080,19.222 8.668,19.746 7.133,19.746 C6.868,19.746 6.607,19.730 6.351,19.700 C7.801,20.630 9.523,21.172 11.373,21.172 C17.399,21.172 20.694,16.180 20.694,11.851 C20.694,11.709 20.691,11.568 20.684,11.427 C21.325,10.965 21.880,10.388 22.319,9.732 C21.732,9.992 21.100,10.168 20.438,10.247 C21.114,9.842 21.633,9.200 21.878,8.435 Z" class="cls-1"/>
</svg>
